packages/components/src/images/icons/wallet_hidden.svg

<svg height="16" viewBox="0 0 16 16" width="16" xmlns="http://www.w3.org/2000/svg"><path d="m3.18080596 9.5c.32786885 0 .59836066.2704918.59836066.5819672 0 .0327869-.08196722 1.1967213-.14754099 1.6311476.33606558-.2704918 1.31147541-.9262296 1.33606558-.9344263.09836065-.057377.19672131-.0819672.31147541-.0737705.30327869.0163935.5409836.2540984.55737705.5245902.0409836.2295082-.06557377.4754098-.28688525.5901639-.01639344.0163935-1.04918033.5163935-1.45901639.6803279.40983606.1639344 1.45901639.6721311 1.48360655.6967213.22131148.1147541.30327869.3196721.27049181.5491803-.01639345.3442623-.27049181.5327869-.54918033.5491804-.1147541.0081967-.2295082-.0163935-.33606557-.0819672-.02459017-.0081968-.99180328-.6557378-1.32786886-.9262296.06557377.4344263.14754099 1.6065574.14754099 1.6393443 0 .3032787-.27049181.5737705-.59836066.5737705s-.60655738-.2540984-.59836065-.5983607c0-.0245901.08196721-1.1721311.13934426-1.6147541-.33606558.2786886-1.30327869.9262296-1.32786885.9344263-.10655738.0655737-.22131148.0901639-.33606558.0819672-.28688524-.0163935-.53278688-.2131148-.54918033-.5737705-.0409836-.2213115.06557377-.4262295.27049181-.5327869.02459016-.0163934 1.09016393-.5327869 1.5-.6967213-.40983607-.1639344-1.45081967-.6639344-1.48360656-.6885246-.21311475-.1147541-.31967213-.3606557-.27868852-.5901639.01639344-.2868853.2704918-.5081967.54918032-.5245902.1147541-.0081967.22131148.0163935.31147541.0737705.03278689.0081967 1.00819672.6639344 1.35245902.9344262-.06557377-.4344262-.14754098-1.5737705-.14754098-1.5983606-.00819673-.34426232.2704918-.6065574.59836065-.6065574zm8.61921274-7.5c.5128359 0 .9355072.38604019.9932723.88337887l.0067277.11662113v1.39996257h.1999813c.5128358 0 .9355072.38604019.9932723.88337888l.0067277.11662112v7.59990213c0 .5128358-.3860402.9355072-.8833789.9932723l-.1166211.0067277-5.501-.0008647c-.00030004-.0070788-.00098827-.0069653-.00167688-.006853l-.09732312.007853c-.33137085 0-.6-.2686292-.6-.6s.26862915-.6.6-.6c.03385746 0 .06705992.0028044.09938778.0081935l-.00038778-.0091935 5.3010187.0008316v-1.799972h-1.9999532c-.99409703 0-1.79997189-.8058749-1.79997189-1.79997189 0-.94439218.72730206-1.71891386 1.65234619-1.79400507l.1476257-.00596685h1.9999532v-1.79997193h-8.99985963l-.16942271-.02201766-.16657205-.03798141h-.10199841l-.16199747-.04199934-.00016843 2.50205455c-.0080788.00130004-.00796531.00198827-.00785299.00267688l.00785299.09732312c0 .33137085-.26862915.6-.6.6s-.6-.26862915-.6-.6c0-.03385746.00280436-.06705992.00819346-.09938778l-.00819346-.00061222.00009178-4.20002807c0-.9443922.72738815-1.71891389 1.65244092-1.79400507l.14762637-.00596686zm1 6.59989707h-1.9999532c-.3313657 0-.5999906.26862496-.5999906.59999064 0 .29822912.2175862.54563825.502669.59213778l.0973216.00785287h1.9999532zm-1.1999813-5.39991578h-7.79987833c-.33136568 0-.59999064.26862496-.59999064.59999064.00222203.15531848.06459453.30372203.17399729.41399354.08899026.09337566.20505025.1549539.33045991.17699777l.09553344.00899933h7.79987833z" fill-rule="evenodd"/></svg>

<?xml version="1.0" encoding="UTF-8"?>
<svg width="16px" height="16px" viewBox="0 0 16 16" version="1.1" xmlns="http://www.w3.org/2000/svg" xmlns:xlink="http://www.w3.org/1999/xlink">
    <!-- Generator: Sketch 63.1 (92452) - https://sketch.com -->
    <title>Icon/Features/Hidden wallet</title>
    <desc>Created with Sketch.</desc>
    <g id="Icon/Features/Hidden-wallet" stroke="none" stroke-width="1" fill="none" fill-rule="evenodd">
        <path d="M3.18080596,9.5 C3.50867481,9.5 3.77916662,9.7704918 3.77916662,10.0819672 C3.77916662,10.1147541 3.6971994,11.2786885 3.63162563,11.7131148 C3.96769121,11.442623 4.94310104,10.7868852 4.96769121,10.7786885 C5.06605186,10.7213115 5.16441252,10.6967213 5.27916662,10.704918 C5.58244531,10.7213115 5.82015022,10.9590164 5.83654367,11.2295082 C5.87752727,11.4590164 5.7709699,11.704918 5.54965842,11.8196721 C5.53326498,11.8360656 4.50047809,12.3360656 4.09064203,12.5 C4.50047809,12.6639344 5.54965842,13.1721311 5.57424858,13.1967213 C5.79556006,13.3114754 5.87752727,13.5163934 5.84474039,13.7459016 C5.82834694,14.0901639 5.57424858,14.2786885 5.29556006,14.295082 C5.18080596,14.3032787 5.06605186,14.2786885 4.95949449,14.2131148 C4.93490432,14.204918 3.96769121,13.557377 3.63162563,13.2868852 C3.6971994,13.7213115 3.77916662,14.8934426 3.77916662,14.9262295 C3.77916662,15.2295082 3.50867481,15.5 3.18080596,15.5 C2.85293711,15.5 2.57424858,15.2459016 2.58244531,14.9016393 C2.58244531,14.8770492 2.66441252,13.7295082 2.72178957,13.2868852 C2.38572399,13.5655738 1.41851088,14.2131148 1.39392072,14.2213115 C1.28736334,14.2868852 1.17260924,14.3114754 1.05785514,14.3032787 C0.770969896,14.2868852 0.525068256,14.0901639 0.508674814,13.7295082 C0.467691207,13.5081967 0.574248584,13.3032787 0.779166617,13.1967213 C0.803756781,13.1803279 1.86933055,12.6639344 2.27916662,12.5 C1.86933055,12.3360656 0.828346945,11.8360656 0.795560059,11.8114754 C0.582445305,11.6967213 0.475887928,11.4508197 0.516871535,11.2213115 C0.533264978,10.9344262 0.787363338,10.7131148 1.06605186,10.6967213 C1.18080596,10.6885246 1.28736334,10.7131148 1.37752727,10.7704918 C1.41031416,10.7786885 2.38572399,11.4344262 2.72998629,11.704918 C2.66441252,11.2704918 2.58244531,10.1311475 2.58244531,10.1065574 C2.57424858,9.76229508 2.85293711,9.5 3.18080596,9.5 Z M11.8000187,2 C12.3128546,2 12.7355259,2.38604019 12.793291,2.88337887 L12.8000187,3 L12.8000187,4.39996257 L13,4.39996257 C13.5128358,4.39996257 13.9355072,4.78600276 13.9932723,5.28334145 L14,5.39996257 L14,12.9998647 C14,13.5127005 13.6139598,13.9353719 13.1166211,13.993137 L13,13.9998647 L7.499,13.999 C7.49869996,13.9919212 7.49801173,13.9920347 7.49732312,13.992147 L7.4,14 C7.06862915,14 6.8,13.7313708 6.8,13.4 C6.8,13.0686292 7.06862915,12.8 7.4,12.8 C7.43385746,12.8 7.46705992,12.8028044 7.49938778,12.8081935 L7.499,12.799 L12.8000187,12.7998316 L12.8000187,10.9998596 L10.8000655,10.9998596 C9.80596847,10.9998596 9.00009361,10.1939847 9.00009361,9.19988771 C9.00009361,8.25549553 9.72739567,7.48097385 10.6524398,7.40588264 L10.8000655,7.39991579 L12.8000187,7.39991579 L12.8000187,5.59994386 L3.80015907,5.59994386 L3.63073636,5.5779262 L3.63073636,5.5779262 L3.46416431,5.53994479 L3.3621659,5.53994479 L3.20016843,5.49794545 L3.2,8 C3.1919212,8.00130004 3.19203469,8.00198827 3.19214701,8.00267688 L3.2,8.1 C3.2,8.43137085 2.93137085,8.7 2.6,8.7 C2.26862915,8.7 2,8.43137085 2,8.1 C2,8.06614254 2.00280436,8.03294008 2.00819346,8.00061222 L2,8 L2.00009178,3.79997193 C2.00009178,2.85557973 2.72747993,2.08105804 3.6525327,2.00596686 L3.80015907,2 L11.8000187,2 Z M12.8000187,8.59989707 L10.8000655,8.59989707 C10.4686998,8.59989707 10.2000749,8.86852203 10.2000749,9.19988771 C10.2000749,9.49811683 10.4176611,9.74552596 10.7027439,9.79202549 L10.8000655,9.79987836 L12.8000187,9.79987836 L12.8000187,8.59989707 Z M11.6000374,3.19998129 L3.80015907,3.19998129 C3.46879339,3.19998129 3.20016843,3.46860625 3.20016843,3.79997193 C3.20239046,3.95529041 3.26476296,4.10369396 3.37416572,4.21396547 C3.46315598,4.30734113 3.57921597,4.36891937 3.70462563,4.39096324 L3.80015907,4.39996257 L11.6000374,4.39996257 L11.6000374,3.19998129 Z" id="Shape" ></path>
    </g>
</svg>
